X: 1
T:Tarantella
C:Traditional Italian Folk Dance
M:6/8
L:1/8
Q:1/8=220
K:D
V:1 
P: Gaily
|:B2 B|"Bm"F2 F B2 B|F3 F2 F|"Em"G2 G GAG
|"Bm"F3 F2 F|"Em"F2 E EFE|"Bm"E2 D DED|"F#7"D2 C CDC|!fine!"Bm"B,3:|
|"A7"z FG|"D"A^GA B2 A|"A7"G3 z EF|GFG A2 G|"D"F3 F2 F
|"Em"GFE E2 E|"Bm"FED D2 E|"F#7"F2 E D2 C|"Bm"B,3||
|:"A7"A,B,C|"D"D2 D F2 F|A2 A ABA|"A7"A2 G GAG|"D"G2 F "A7"A,B,C
|"D"D2 D F2 F|A2 A ABA|"A7"cBA GFE|!D.C.!"D"D3:||

